X: 47
T: No_140_Sandhill_Crane_Dance_Song_(d).krn
N: Derived from No_140_Sandhill_Crane_Dance_Song_(d).krn
%%abc-version 2.0
%%abcx-abcm2ps-target-version 5.9.1 (29 Sep 2008)
%%abc-creator hum2abc beta
%%abcx-conversion-date 2019/03/15 08:38:45
%%humdrum-veritas 1672066845
%%humdrum-veritas-data 4092838467
%%linebreak <none>
%%barnumbers 0
L: 1/8
M: 2/4
K: Eb clef=bass
[K:clef=bass][M:2/4]F,F,E,2 [I:setbarnb 2]| 
F,F, C, z | 
E,4 | 
E,2z2 | 
E,4 | 
F,E, C, z | 
E,4 ||  
[M:3/4]E,4F,3/F,/ ||  
[M:2/4]F,3E, | 
F,3/E,/ F,E,/ z/ ||  
[M:3/4]E,7/B,,/E,2 ||  
[M:2/4]E,4 :|]  



